X: 29676
T: Nostalgia In Red Bathrobe
R: reel
M: 4/4
K: Eminor
|:G2 FG E3G|FG AB G2F2|GF AG E3G|FD FG A4|
G2 FG E3G|FG AB G2F2|GF EG FD FG|1 E4 z2 EF:|2 E4 z2 GA||
|:B2 AB E3B|AB dc B2 A2|GF GA B2 AG|A4 B4|
B2 AB E3F|GB dc B2 A2|GF EG FD FG|1 E4 z2 GA:|2 E6 z2||

